X:159
T:Nigger Quadrilles #2. Le4.159, The
Q:1/4=100
L:1/8
B:L.Leadley MS#4 c1850
Z:vmp.Mike Hicken 2016 www.village-music-project.org.uk
N: * This note is not clear in the original.
M:2/4
K:G
!p!D|GG/A/ BB|cd BD|!f!G/D/G/A/ B/G/B/d/|c/B/c/d/ B !p!D|GG/A/ BB|cd !f!BD|
G/D/G/A/ B/G/B/d/|c/B/c/d/ B !fermata!||!f!B|A>FGE|FAAB|AF/G/ GE|FDz2|A>FGE|
FA AA/B/|cAGE|FD !p!zD|G/D/G/A/ B/G/B/d/|c/B/c/d/ B!f! D|G/D/G/A/ B/G/B/d/|
c/B/c/d/ B!p! D|G/D/G/A/ B/G/B/d/|c/B/c/d/ B!f! D|G/D/G/A/ B/G/B/d/|c/A/E/F/ G "_D.C."|]

